X:1
T:Healing at the Fountain
T:William James Kirkpatrick
T:Healing at the Fountain
T:Public Domain
T:Public Domain
C:William James Kirkpatrick
Z:Public Domain
%%score ( 1 2 ) ( 3 4 )
L:1/8
M:4/4
K:D
V:1 treble 
V:2 treble 
V:3 bass 
V:4 bass 
V:1
 [FA]3 [GB] [FA][DF]D[GB] | [FA]4 [DF]4 | [Fd]3 [Ac] [GB][FA][FA][DF] | [CE]6 z2 | %4
w: 1.~There is heal- ing at the|tain, Come,|be- hold the crim- son tide,|Flow-|
w: 2.~There is heal- ing at the|tain, Come|and find it, wear- y soul,|There|
w: 3.~There is heal- ing at the|tain, Look|to Je- sus now and live,|At|
w: 4.~There is heal- ing at the|tain, Pre-|cious foun- tain filled with blood;|Come,|
 [FA]3 [GB] [FA][DF]D[GB] | [FA]4 [DF]4 | [CE]3 [CG] [CB][CA][CG][CE] | D6 z2 || %8
w: ing down from Cal- vary’s moun-|Where the|Prince of Glor- y died. *||
w: your sins may all be cov-|Je- sus|waits to make you whole. Oh|the|
w: the cross lay down thy bur-|All thy|wand- erings He’ll for- give. *||
w: oh come, the Sav- ior calls|Come and|plunge be- neath its flood. *||
"^Refrain" [Fd]3 [Ge] [Fd]2 [FA]2 | [GB][Ac][Bd][GB] [FA]2 [DF]2 | [CE][DF][EG][FA] [GB]2 [GA]2 | %11
w: |||
w: tain! bless- èd heal-|ing foun- tain! I am glad|’tis flow- ing free; Oh the|
w: |||
w: |||
 ([FA]4 [DF]4) | [Fd]3 [Ge] [Fd]2 [FA]2 | [GB][Ac][Bd][GB] [FA]2 [DF]2 | %14
w: |||
w: foun- *|tain! pre- cious, cleans-|ing foun- tain! Praise the Lord,|
w: |||
w: |||
 [CE][DF][EG][FA] [GB]2 [Gc]2 | [Fd]6 z2 |] %16
w: ||
w: it cleans- eth me. * *||
w: ||
w: ||
V:2
 x6 D x | x8 | x8 | x8 | x6 D x | x8 | x8 | D6 x2 || x8 | x8 | x8 | x8 | x8 | x8 | x8 | x8 |] %16
w: foun-||||tain,||||||||||||
w: foun-||||ered;|||foun-|||||||||
w: foun-||||den;||||||||||||
w: foun-||||you,||||||||||||
V:3
 [D,D]3 [D,D] [D,D][D,A,][D,F,][D,D] | [D,D]4 [D,A,]4 | [D,A,]3 [D,A,] [D,D][D,D][D,A,][F,A,] | %3
 A,6 z2 | [D,A,]3 [D,D] [D,D][D,A,][D,F,][D,D] | [D,D]4 [D,A,]4 | %6
 [A,,A,]3 [A,,A,] [A,,E,][A,,E,][A,,E,][A,,G,] | [D,F,]6 z2 || [D,A,]3 [D,A,] [D,A,]2 [D,D]2 | %9
 [G,D][G,D][G,D][G,D] [D,D]2 [D,A,]2 | [A,,A,][A,,A,][A,,A,][A,,A,] [A,,A,]2 [A,,C]2 | (D4 A,4) | %12
 [D,A,]3 [D,A,] [D,A,]2 [D,D]2 | [G,D][G,D][G,D][G,D] [D,D]2 [D,A,]2 | %14
 [A,,A,][A,,A,][A,,A,][A,,A,] [A,,A,]2 [A,,A,]2 | [D,A,]6 z2 |] %16
V:4
 x8 | x8 | x8 | A,6 x2 | x8 | x8 | x8 | x8 || x8 | x8 | x8 | D,8 | x8 | x8 | x8 | x8 |] %16

